app/dist/common/images/pineapple-energy.svg

<svg height="18" viewBox="0 0 18 18" width="18" xmlns="http://www.w3.org/2000/svg"><path d="m0 0h18v18h-18z" fill="#f0f3fa"/><path d="m8 4.18 1-1.18 1 1.18-1 2.82zm-.74.43-1.26-.61.2 1.38 1.8 1.62zm3.48 0 1.26-.61-.2 1.38-1.8 1.62z" fill="#02b214"/><path d="m7.5 7 1.5 1.5-1.5 1.5-1.5-1.5zm3 0 1.5 1.5-1.5 1.5-1.5-1.5zm-3 3 1.5 1.5-1.5 1.5-1.5-1.5zm3 0 1.5 1.5-1.5 1.5-1.5-1.5zm-1.5-1 1 1-1 1-1-1zm-2.5 4 .5.5-.5.5-.5-.5zm5 0 .5.5-.5.5-.5-.5zm-1 1 .5.5-.5.5-.5-.5zm-3 0 .5.5-.5.5-.5-.5zm1.5-2 1 1-1 1-1-1z" fill="#f3c337"/></svg>

<!-- by TradingView --><svg width="18" height="18" viewBox="0 0 18 18" xmlns="http://www.w3.org/2000/svg"><path fill="#F0F3FA" d="M0 0h18v18H0z"/><path d="M8 4.18 9 3l1 1.18L9 7 8 4.18ZM7.26 4.61 6 4l.2 1.38L8 7l-.74-2.39ZM10.74 4.61 12 4l-.2 1.38L10 7l.74-2.39Z" fill="#02B214"/><path d="M7.5 7 9 8.5 7.5 10 6 8.5 7.5 7ZM10.5 7 12 8.5 10.5 10 9 8.5 10.5 7ZM7.5 10 9 11.5 7.5 13 6 11.5 7.5 10ZM10.5 10l1.5 1.5-1.5 1.5L9 11.5l1.5-1.5ZM9 9l1 1-1 1-1-1 1-1ZM6.5 13l.5.5-.5.5-.5-.5.5-.5ZM11.5 13l.5.5-.5.5-.5-.5.5-.5ZM10.5 14l.5.5-.5.5-.5-.5.5-.5ZM7.5 14l.5.5-.5.5-.5-.5.5-.5ZM9 12l1 1-1 1-1-1 1-1Z" fill="#F3C337"/></svg>
